img/logos-img-06.svg

<svg width="149" height="142" viewBox="0 0 149 142" fill="none" xmlns="http://www.w3.org/2000/svg">
<path d="M132.19 54.5546C127.495 54.5546 123.363 56.5154 120.327 59.5831C109.152 51.7715 94.0953 46.743 77.4111 46.2054L86.0819 6.73634L113.691 12.9983C113.691 19.8294 119.2 25.3956 125.961 25.3956C132.848 25.3956 138.388 19.6713 138.388 12.8401C138.388 6.00894 132.879 0.284668 125.961 0.284668C121.141 0.284668 116.977 3.22587 114.911 7.24235L84.4228 0.411171C82.889 3.54052e-05 81.3865 1.10694 80.9796 2.65661L71.4636 46.1737C54.9046 46.8695 40.0046 51.898 28.7983 59.7096C25.7619 56.5154 21.4735 54.5546 16.7781 54.5546C-0.626108 54.5546 -6.32317 78.1475 9.60982 86.212C9.04637 88.7105 8.79595 91.3671 8.79595 94.0236C8.79595 120.526 38.3455 142 74.6252 142C111.061 142 140.611 120.526 140.611 94.0236C140.611 91.3671 140.329 88.584 139.64 86.0855C155.26 77.9893 149.501 54.5546 132.19 54.5546ZM34.8709 87.8882C34.8709 80.9305 40.3802 75.3328 47.2981 75.3328C54.0594 75.3328 59.5686 80.8989 59.5686 87.8882C59.5686 94.7194 54.0594 100.286 47.2981 100.286C40.4115 100.317 34.8709 94.7194 34.8709 87.8882ZM101.952 117.458C90.5581 128.97 58.4104 128.97 47.0163 117.458C45.7642 116.351 45.7642 114.391 47.0163 113.126C48.1119 112.019 50.0527 112.019 51.1483 113.126C59.8504 122.139 88.7113 122.297 97.789 113.126C98.8846 112.019 100.825 112.019 101.921 113.126C103.204 114.391 103.204 116.351 101.952 117.458ZM101.702 100.317C94.9405 100.317 89.4312 94.751 89.4312 87.9198C89.4312 80.9622 94.9405 75.3644 101.702 75.3644C108.588 75.3644 114.129 80.9305 114.129 87.9198C114.098 94.7194 108.588 100.317 101.702 100.317Z" fill="#737373"/>
</svg>

<svg width="149" height="142" fill="none" xmlns="http://www.w3.org/2000/svg"><path d="M132.19 54.555c-4.695 0-8.827 1.96-11.863 5.028-11.175-7.811-26.232-12.84-42.916-13.378l8.67-39.469 27.61 6.262c0 6.831 5.509 12.398 12.27 12.398 6.887 0 12.427-5.725 12.427-12.556 0-6.831-5.509-12.555-12.427-12.555-4.82 0-8.984 2.94-11.05 6.957L84.423.412c-1.534-.412-3.037.695-3.443 2.245l-9.516 43.517c-16.56.696-31.46 5.724-42.666 13.536a16.555 16.555 0 0 0-12.02-5.155c-17.404 0-23.101 23.592-7.168 31.657-.564 2.498-.814 5.155-.814 7.812 0 26.502 29.55 47.976 65.83 47.976 36.435 0 65.985-21.474 65.985-47.976 0-2.657-.282-5.44-.971-7.939 15.62-8.096 9.861-31.53-7.45-31.53ZM34.87 87.888c0-6.958 5.51-12.555 12.428-12.555 6.761 0 12.27 5.566 12.27 12.555 0 6.831-5.509 12.398-12.27 12.398-6.887.031-12.427-5.567-12.427-12.398Zm67.082 29.57c-11.394 11.512-43.542 11.512-54.936 0-1.252-1.107-1.252-3.067 0-4.332 1.096-1.107 3.037-1.107 4.132 0 8.702 9.013 37.563 9.171 46.641 0 1.096-1.107 3.036-1.107 4.132 0 1.283 1.265 1.283 3.225.031 4.332Zm-.25-17.141c-6.761 0-12.27-5.566-12.27-12.397 0-6.958 5.508-12.556 12.27-12.556 6.886 0 12.427 5.566 12.427 12.556-.031 6.8-5.541 12.397-12.427 12.397Z" fill="#737373"/></svg>
